communes/5564.svg

<?xml version="1.0" encoding="UTF-8"?>
<svg version="1.0" viewBox="0 0 603 763" xmlns="http://www.w3.org/2000/svg" xmlns:cc="http://creativecommons.org/ns#" xmlns:dc="http://purl.org/dc/elements/1.1/" xmlns:rdf="http://www.w3.org/1999/02/22-rdf-syntax-ns#" xmlns:xlink="http://www.w3.org/1999/xlink">
<metadata>
<rdf:RDF>
<cc:Work rdf:about="">
<dc:format>image/svg+xml</dc:format>
<dc:type rdf:resource="http://purl.org/dc/dcmitype/StillImage"/>
<dc:date>07-AUG-2006</dc:date>
<dc:creator>
<cc:Agent>
<dc:title>Jérôme BLUM (wagner51)</dc:title>
</cc:Agent>
</dc:creator>
<cc:license rdf:resource="http://creativecommons.org/licenses/GPL/2.0/"/>
<dc:coverage/>
<dc:description>Gabarit pour le Projet:Blasons de WIkipédia</dc:description>
<dc:subject>
<rdf:Bag>
<rdf:li>blason suisse modèle gabarit projet blasons</rdf:li>
</rdf:Bag>
</dc:subject>
<dc:language>fr</dc:language>
<dc:title>Gabrit d'un blason suisse</dc:title>
</cc:Work>
<cc:License rdf:about="http://creativecommons.org/licenses/GPL/2.0/">
<cc:permits rdf:resource="http://web.resource.org/cc/Reproduction"/>
<cc:permits rdf:resource="http://web.resource.org/cc/Distribution"/>
<cc:requires rdf:resource="http://web.resource.org/cc/Notice"/>
<cc:permits rdf:resource="http://web.resource.org/cc/DerivativeWorks"/>
<cc:requires rdf:resource="http://web.resource.org/cc/ShareAlike"/>
<cc:requires rdf:resource="http://web.resource.org/cc/SourceCode"/>
</cc:License>
</rdf:RDF>
</metadata>
<defs>
<radialGradient id="a" cx="858.04" cy="579.93" r="300" gradientTransform="matrix(1.215 1.5316e-24 1.4647e-23 1.2667 -839.19 -490.49)" gradientUnits="userSpaceOnUse">
<stop stop-color="#fff" stop-opacity=".31373" offset="0"/>
<stop stop-color="#fff" stop-opacity=".25098" offset=".19"/>
<stop stop-color="#6b6b6b" stop-opacity=".12549" offset=".6"/>
<stop stop-opacity=".12549" offset="1"/>
</radialGradient>
</defs>
<desc>Coat of Arms of Canton of Freiburg (Fribourg)</desc>
<g>
<path d="m1.5 1.5v458.87c0 166.31 134.31 301.13 300 301.13 165.69 0 300-134.82 300-301.13v-458.87h-600z" fill="#fff"/>
<path d="m501.5 1.501v683.3c61.368-55.139 100-135.25 100-224.43v-458.87h-100zm-400 683.3c28.855 25.926 62.736 46.322 100 59.543v-742.84h-100v683.3zm200 76.703c35.066 0 68.721-6.061 99.999-17.158v-742.84h-99.999v760z" fill="#2b5df2"/>
<path d="m501.5 1.501v683.3m-400-683.3v683.3m99.999 59.543v-742.84m99.998 0v760m99.999-17.16v-742.84" fill="none" stroke="#000" stroke-width="3"/>
<g fill="#fcef3c" stroke="#000" stroke-linecap="round" stroke-linejoin="round" stroke-width="3">
<path d="m116.81 347.5-8e-3 38.937-33.245-1e-3c-15.748 0.095-0.145 27.135-27.433 31.757-3.586-16.519-5.46-33.672-5.458-51.253 5e-3 -17.566 1.882-34.708 5.43-51.297 26.894 5.078 12.139 31.758 27.468 31.852l33.246 5e-3z"/>
<path d="m519.44 347.5c15.33-0.094 0.575-26.774 27.469-31.852 3.547 16.589 5.425 33.73 5.43 51.297 2e-3 17.581-1.871 34.734-5.458 51.253-27.288-4.622-11.686-31.663-27.433-31.757l-33.245 1e-3 -8e-3 -38.937 33.245-5e-3z"/>
<path d="m282.1 551.6 38.937 8e-3 -1e-3 33.245c0.095 15.747 27.135 0.145 31.758 27.433-16.52 3.587-33.673 5.46-51.254 5.458-17.566-5e-3 -34.708-1.883-51.297-5.43 5.078-26.894 31.758-12.139 31.852-27.469l5e-3 -33.245z"/>
<path d="m282.09 148.97c-0.094-15.33-26.774-0.575-31.852-27.469 16.589-3.547 33.73-5.425 51.297-5.43 17.581-2e-3 34.734 1.871 51.253 5.458-4.622 27.288-31.662 11.686-31.757 27.433l1e-3 33.245-38.937 8e-3 -5e-3 -33.245z"/>
<path d="m157.18 483.78 27.527 27.538-23.508 23.507c-11.068 11.202 19.085 19.29 3.058 41.854-14.217-9.145-27.671-19.949-40.101-32.383-12.418-12.425-23.211-25.873-32.433-40.111 22.607-15.426 31.04 13.873 41.946 3.1l23.511-23.505z"/>
<path d="m441.88 199.08c10.773-10.906-18.525-19.338-3.1-41.946 14.238 9.222 27.687 20.015 40.111 32.433 12.434 12.431 23.238 25.884 32.383 40.101-22.564 16.027-30.652-14.125-41.854-3.058l-23.507 23.509-27.538-27.527 23.505-23.512z"/>
<path d="m418.38 511.22 27.537-27.526 23.508 23.508c11.201 11.068 19.289-19.085 41.854-3.058-9.145 14.217-19.949 27.671-32.383 40.101-12.425 12.418-25.873 23.211-40.111 32.434-15.426-22.607 13.873-31.04 3.1-41.946l-23.505-23.513z"/>
<path d="m133.67 226.52c-10.906-10.773-19.339 18.525-41.946 3.1 9.223-14.238 20.015-27.687 32.433-40.112 12.43-12.433 25.884-23.238 40.101-32.382 16.027 22.564-14.125 30.651-3.058 41.854l23.509 23.507-27.527 27.538-23.512-23.505z"/>
<path d="m341.28 347.5v-20.281h-20.282v-157.82h-38.999v157.82h-20.28v20.281h-157.82v38.999h157.82v20.281h20.28v157.82h38.999v-157.82h20.282v-20.281h157.82v-38.999h-157.82zm-20.282 38.998h-38.996v-38.996h38.996v38.996z"/>
<path d="m520.04 366.99c0-120.63-97.905-218.53-218.54-218.53-120.64 0-218.54 97.898-218.54 218.53l0.015 0.023h-0.015c0 120.63 97.906 218.53 218.54 218.53 120.64 0 218.54-97.898 218.54-218.53h-0.017l0.017-0.023zm-218.54 178.52c-98.572 0-178.6-79.957-178.7-178.5h-0.046l0.046-0.023c0.102-98.543 80.129-178.5 178.7-178.5 98.574 0 178.57 79.957 178.67 178.5l0.015 0.023h-0.015c-0.102 98.543-80.096 178.5-178.67 178.5z"/>
</g>
</g>
<g>
<path d="m1.5 1.5v458.87c0 166.31 134.31 301.13 300 301.13 165.69 0 300-134.82 300-301.13v-458.87h-600z" fill="url(#a)"/>
<path d="m1.5 1.5v458.87c0 166.31 134.31 301.13 300 301.13 165.69 0 300-134.82 300-301.13v-458.87h-600z" fill="none" stroke="#000" stroke-width="3"/>
</g>
</svg>

<?xml version="1.0" encoding="UTF-8" standalone="no"?>
<svg
   xmlns:dc="http://purl.org/dc/elements/1.1/"
   xmlns:cc="http://creativecommons.org/ns#"
   xmlns:rdf="http://www.w3.org/1999/02/22-rdf-syntax-ns#"
   xmlns:svg="http://www.w3.org/2000/svg"
   xmlns="http://www.w3.org/2000/svg"
   xmlns:xlink="http://www.w3.org/1999/xlink"
   xmlns:sodipodi="http://sodipodi.sourceforge.net/DTD/sodipodi-0.dtd"
   xmlns:inkscape="http://www.inkscape.org/namespaces/inkscape"
   height="763"
   width="603"
   version="1.0"
   id="svg20"
   sodipodi:version="0.32"
   inkscape:version="0.46"
   sodipodi:docname="Novalles-coat_of_arms.svg"
   sodipodi:docbase="C:\Documents and Settings\Steve\Bureau\Blason Villages Suisse pour Wikipédia (par Delta-9)"
   inkscape:output_extension="org.inkscape.output.svg.inkscape">
  <metadata
     id="metadata31">
    <rdf:RDF>
      <cc:Work
         rdf:about="">
        <dc:format>image/svg+xml</dc:format>
        <dc:type
           rdf:resource="http://purl.org/dc/dcmitype/StillImage" />
        <dc:date>07-AUG-2006</dc:date>
        <dc:creator>
          <cc:Agent>
            <dc:title>Jérôme BLUM (wagner51)</dc:title>
          </cc:Agent>
        </dc:creator>
        <cc:license
           rdf:resource="http://creativecommons.org/licenses/GPL/2.0/" />
        <dc:coverage />
        <dc:description>Gabarit pour le Projet:Blasons de WIkipédia</dc:description>
        <dc:subject>
          <rdf:Bag>
            <rdf:li>blason suisse modèle gabarit projet blasons</rdf:li>
          </rdf:Bag>
        </dc:subject>
        <dc:language>fr</dc:language>
        <dc:title>Gabrit d'un blason suisse</dc:title>
      </cc:Work>
      <cc:License
         rdf:about="http://creativecommons.org/licenses/GPL/2.0/">
        <cc:permits
           rdf:resource="http://web.resource.org/cc/Reproduction" />
        <cc:permits
           rdf:resource="http://web.resource.org/cc/Distribution" />
        <cc:requires
           rdf:resource="http://web.resource.org/cc/Notice" />
        <cc:permits
           rdf:resource="http://web.resource.org/cc/DerivativeWorks" />
        <cc:requires
           rdf:resource="http://web.resource.org/cc/ShareAlike" />
        <cc:requires
           rdf:resource="http://web.resource.org/cc/SourceCode" />
      </cc:License>
    </rdf:RDF>
  </metadata>
  <defs
     id="defs29"><inkscape:perspective
   sodipodi:type="inkscape:persp3d"
   inkscape:vp_x="0 : 381.5 : 1"
   inkscape:vp_y="0 : 1000 : 0"
   inkscape:vp_z="603 : 381.5 : 1"
   inkscape:persp3d-origin="301.5 : 254.33333 : 1"
   id="perspective28" />
<linearGradient
   id="linearGradient2893">
  <stop
     style="stop-color:#ffffff;stop-opacity:0.3137255;"
     offset="0"
     id="stop2895" />
  <stop
     id="stop2897"
     offset="0.19"
     style="stop-color:#ffffff;stop-opacity:0.25098041;" />
  <stop
     style="stop-color:#6b6b6b;stop-opacity:0.1254902;"
     offset="0.60000002"
     id="stop2901" />
  <stop
     style="stop-color:#000000;stop-opacity:0.1254902;"
     offset="1"
     id="stop2899" />
</linearGradient>
<linearGradient
   id="linearGradient2955">
  <stop
     style="stop-color:white;stop-opacity:0;"
     offset="0"
     id="stop2965" />
  <stop
     style="stop-color:black;stop-opacity:0.64583331;"
     offset="1"
     id="stop2959" />
</linearGradient>
<radialGradient
   inkscape:collect="always"
   xlink:href="#linearGradient2893"
   id="radialGradient3236"
   gradientUnits="userSpaceOnUse"
   gradientTransform="matrix(1.215027,1.531577e-24,1.464684e-23,1.266667,-839.1924,-490.4894)"
   cx="858.04236"
   cy="579.93323"
   fx="858.04236"
   fy="579.93323"
   r="300" />
<inkscape:perspective
   id="perspective2494"
   inkscape:persp3d-origin="297.63751 : 280.63 : 1"
   inkscape:vp_z="595.27502 : 420.94501 : 1"
   inkscape:vp_y="0 : 1000 : 0"
   inkscape:vp_x="0 : 420.94501 : 1"
   sodipodi:type="inkscape:persp3d" />

	
	

	

		
			
		
			
		
			
		
			
		
			
		
			
		
			
		
			
		
		
	
		
		
	</defs>
  <sodipodi:namedview
     inkscape:window-height="968"
     inkscape:window-width="1280"
     inkscape:pageshadow="2"
     inkscape:pageopacity="0.0"
     guidetolerance="10.0"
     gridtolerance="10.0"
     objecttolerance="10.0"
     borderopacity="1.0"
     bordercolor="#666666"
     pagecolor="#ffffff"
     id="base"
     inkscape:zoom="0.92652193"
     inkscape:cx="173.53758"
     inkscape:cy="399.00713"
     inkscape:window-x="1280"
     inkscape:window-y="22"
     inkscape:current-layer="layer2"
     showgrid="false"
     showguides="true"
     inkscape:guide-bbox="true">
    <sodipodi:guide
       orientation="horizontal"
       position="761.5"
       id="guide1885" />
    <sodipodi:guide
       orientation="vertical"
       position="1.5"
       id="guide1887" />
    <sodipodi:guide
       orientation="horizontal"
       position="1.5"
       id="guide1889" />
    <sodipodi:guide
       orientation="vertical"
       position="601.5"
       id="guide1891" />
    <sodipodi:guide
       orientation="vertical"
       position="301.50081"
       id="guide1893" />
  </sodipodi:namedview>
  <desc
     id="desc22">Coat of Arms of Canton of Freiburg (Fribourg)</desc>
  <g
     inkscape:groupmode="layer"
     id="layer1"
     inkscape:label="Fond écu"
     style="opacity:1;display:inline"
     sodipodi:insensitive="true">
    <path
       id="path1899"
       d="M 1.5,1.49998 L 1.5,460.3679 C 1.5,626.6785 135.81456,761.5 301.49999,761.5 C 467.18543,761.5 601.5,626.6785 601.5,460.3679 L 601.5,1.49998 L 1.5,1.49998 z"
       style="fill:#ffffff;fill-opacity:1" />
  </g>
  <g
     inkscape:groupmode="layer"
     id="layer2"
     inkscape:label="Meubles"
     style="opacity:1;display:inline"
     sodipodi:insensitive="true">
    <path
       style="fill:#2b5df2"
       id="path2741"
       d="M 501.499,1.501 L 501.499,684.796 C 562.867,629.657 601.5,549.546 601.5,460.368 L 601.5,1.501 L 501.499,1.501 z M 101.502,684.796 C 130.357,710.722 164.238,731.118 201.502,744.339 L 201.502,1.501 L 101.502,1.501 L 101.502,684.796 L 101.502,684.796 z M 301.499,761.499 C 336.565,761.499 370.22,755.438 401.498,744.341 L 401.498,1.501 L 301.499,1.501 L 301.499,761.499 L 301.499,761.499 z" />
    <path
       style="fill:none;stroke:#000000;stroke-width:3"
       id="path2743"
       d="M 501.499,1.501 L 501.499,684.796 M 101.502,1.501 L 101.502,684.796 M 201.501,744.339 L 201.501,1.501 M 301.499,1.501 L 301.499,761.501 M 401.498,744.341 L 401.498,1.501" />
    <g
       id="g2563">
      <path
         d="M 116.808,347.501 L 116.8,386.438 L 83.555,386.437 C 67.807,386.532 83.41,413.572 56.122,418.194 C 52.536,401.675 50.662,384.522 50.664,366.941 C 50.669,349.375 52.546,332.233 56.094,315.644 C 82.988,320.722 68.233,347.402 83.562,347.496 L 116.808,347.501 z"
         sodipodi:nodetypes="ccsccccc"
         id="path3411_2_"
         style="fill:#fcef3c;stroke:#000000;stroke-width:3;stroke-linecap:round;stroke-linejoin:round" />
      <path
         d="M 519.436,347.496 C 534.766,347.402 520.011,320.722 546.905,315.644 C 550.452,332.233 552.33,349.374 552.335,366.941 C 552.337,384.522 550.464,401.675 546.877,418.194 C 519.589,413.572 535.191,386.531 519.444,386.437 L 486.199,386.438 L 486.191,347.501 L 519.436,347.496 z"
         sodipodi:nodetypes="ccsccccc"
         id="path3411_11_"
         style="fill:#fcef3c;stroke:#000000;stroke-width:3;stroke-linecap:round;stroke-linejoin:round" />
      <path
         d="M 282.095,551.596 L 321.032,551.604 L 321.031,584.849 C 321.126,600.596 348.166,584.994 352.789,612.282 C 336.269,615.869 319.116,617.742 301.535,617.74 C 283.969,617.735 266.827,615.857 250.238,612.31 C 255.316,585.416 281.996,600.171 282.09,584.841 L 282.095,551.596 z"
         sodipodi:nodetypes="ccsccccc"
         id="path3411_15_"
         style="fill:#fcef3c;stroke:#000000;stroke-width:3;stroke-linecap:round;stroke-linejoin:round" />
      <path
         d="M 282.089,148.968 C 281.995,133.638 255.315,148.393 250.237,121.499 C 266.826,117.952 283.967,116.074 301.534,116.069 C 319.115,116.067 336.268,117.94 352.787,121.527 C 348.165,148.815 321.125,133.213 321.03,148.96 L 321.031,182.205 L 282.094,182.213 L 282.089,148.968 z"
         sodipodi:nodetypes="ccsccccc"
         id="path3411_14_"
         style="fill:#fcef3c;stroke:#000000;stroke-width:3;stroke-linecap:round;stroke-linejoin:round" />
      <path
         d="M 157.182,483.781 L 184.709,511.319 L 161.201,534.826 C 150.133,546.028 180.286,554.116 164.259,576.68 C 150.042,567.535 136.588,556.731 124.158,544.297 C 111.74,531.872 100.947,518.424 91.725,504.186 C 114.332,488.76 122.765,518.059 133.671,507.286 L 157.182,483.781 z"
         sodipodi:nodetypes="ccsccccc"
         id="path3411_19_"
         style="fill:#fcef3c;stroke:#000000;stroke-width:3;stroke-linecap:round;stroke-linejoin:round" />
      <path
         d="M 441.88,199.076 C 452.653,188.17 423.355,179.738 438.78,157.13 C 453.018,166.352 466.467,177.145 478.891,189.563 C 491.325,201.994 502.129,215.447 511.274,229.664 C 488.71,245.691 480.622,215.539 469.42,226.606 L 445.913,250.115 L 418.375,222.588 L 441.88,199.076 z"
         sodipodi:nodetypes="ccsccccc"
         id="path3411_18_"
         style="fill:#fcef3c;stroke:#000000;stroke-width:3;stroke-linecap:round;stroke-linejoin:round" />
      <path
         d="M 418.375,511.222 L 445.912,483.696 L 469.42,507.204 C 480.621,518.272 488.709,488.119 511.274,504.146 C 502.129,518.363 491.325,531.817 478.891,544.247 C 466.466,556.665 453.018,567.458 438.78,576.681 C 423.354,554.074 452.653,545.641 441.88,534.735 L 418.375,511.222 z"
         sodipodi:nodetypes="ccsccccc"
         id="path3411_17_"
         style="fill:#fcef3c;stroke:#000000;stroke-width:3;stroke-linecap:round;stroke-linejoin:round" />
      <path
         d="M 133.67,226.525 C 122.764,215.752 114.331,245.05 91.724,229.625 C 100.947,215.387 111.739,201.938 124.157,189.513 C 136.587,177.08 150.041,166.275 164.258,157.131 C 180.285,179.695 150.133,187.782 161.2,198.985 L 184.709,222.492 L 157.182,250.03 L 133.67,226.525 z"
         sodipodi:nodetypes="ccsccccc"
         id="path3411_16_"
         style="fill:#fcef3c;stroke:#000000;stroke-width:3;stroke-linecap:round;stroke-linejoin:round" />
      <path
         id="path2485"
         d="M 341.279,347.501 L 341.279,327.22 L 320.997,327.22 L 320.997,169.4 L 281.998,169.4 L 281.998,327.22 L 261.718,327.22 L 261.718,347.501 L 103.898,347.501 L 103.898,386.5 L 261.719,386.5 L 261.719,406.781 L 281.999,406.781 L 281.999,564.601 L 320.998,564.601 L 320.998,406.781 L 341.28,406.781 L 341.28,386.5 L 499.099,386.5 L 499.099,347.501 L 341.279,347.501 L 341.279,347.501 z M 320.997,386.499 L 282.001,386.499 L 282.001,347.503 L 320.997,347.503 L 320.997,386.499 z"
         style="fill:#fcef3c;stroke:#000000;stroke-width:3;stroke-linecap:round;stroke-linejoin:round" />
      <path
         id="path2487"
         d="M 520.042,366.989 C 520.042,246.356 422.137,148.457 301.498,148.457 C 180.86,148.457 82.954,246.355 82.954,366.989 L 82.969,367.012 L 82.954,367.012 C 82.954,487.645 180.86,585.544 301.498,585.544 C 422.137,585.544 520.042,487.646 520.042,367.012 L 520.025,367.012 L 520.042,366.989 z M 301.498,545.513 C 202.926,545.513 122.899,465.556 122.797,367.013 L 122.751,367.013 L 122.797,366.99 C 122.899,268.447 202.926,188.49 301.498,188.49 C 400.072,188.49 480.066,268.447 480.168,366.99 L 480.183,367.013 L 480.168,367.013 C 480.066,465.556 400.072,545.513 301.498,545.513 z"
         style="fill:#fcef3c;stroke:#000000;stroke-width:3;stroke-linecap:round;stroke-linejoin:round" />
    </g>
  </g>
  <g
     inkscape:groupmode="layer"
     id="layer3"
     inkscape:label="Reflet final"
     style="display:inline"
     sodipodi:insensitive="true">
    <path
       style="fill:url(#radialGradient3236);fill-opacity:1"
       d="M 1.5,1.5 L 1.5,460.3679 C 1.5,626.67854 135.81454,761.5 301.49993,761.5 C 467.1854,761.5 601.5,626.67854 601.5,460.3679 L 601.5,1.5 L 1.5,1.5 z "
       id="path2346" />
  </g>
  <g
     inkscape:groupmode="layer"
     id="layer4"
     inkscape:label="Contour final"
     style="display:inline"
     sodipodi:insensitive="true">
    <path
       style="fill:none;fill-opacity:1;stroke:#000000;stroke-width:3;stroke-miterlimit:4;stroke-dasharray:none;stroke-opacity:1"
       d="M 1.5,1.5 L 1.5,460.36794 C 1.5,626.67854 135.81454,761.5 301.49993,761.5 C 467.1854,761.5 601.5,626.67854 601.5,460.36794 L 601.5,1.5 L 1.5,1.5 z "
       id="path3239" />
  </g>
</svg>
